X:74
T:Reel 74
M:4/4
K:Ador
L:1/8
cd| (3edc |d2G2 GB|A2A2 A2|d2cd A2|d2e2 B2|d2BG c2|B2AG A2|A2A2 A2|A2z2|c2|e2c2 c2|d2B2 A2|d2B2 d2|e2ed e2|e2c2 c2|d2B2 A2|A2AG AB|A2z2|
